X:1
T:Tattie Jock
M:4/4
L:1/4
K:D
 F/2F/2| A3/2 F/2 A B| F/2 E3/2 E F| F/2- A F/2 A B| F E z| A| A3/2 F/2 A A/2B/2|\
 F/2- E D/2 D3/2 E/2| F3/2 E/2 F B,| D2 D| z| D F/2E/2 D z| F DF/2-G/2 A|\
 A B/2A/2 E/2- F3/2|E/2-D/2 D| D2| z2||

